X: 292
T: I'm Sadly Thinking
B: O'Neill's 292
N: "Slow and plaintive"
N: "Collected by F.O'Neill"
Z: 1997 by John Chambers <jc@trillian.mit.edu>
M: 3/4
L: 1/8
K:F
(c/B/) AG \
|F2 FG AA|cB2 AB cc|c2 Bc AF|G3 c/B/ AG \
|F2 FG AA|cB2 AB cc|f2 AB/G/ FE|F3||
||G AA \
|e2 de fc|c2 BA BA|G2 ec BA|G3 c/B/ AG \
|F2 FG AA|cB2 AB cc|f2 AB/G/ FE|F3||
